X: 14659
T: Gan Ainm
R: barndance
M: 4/4
K: Adorian
|:c2A2 GEDE|G4 G2AB|c2Ac B2GB|c2A2 (3efg ed|
c2A2 GEDE|G4 G2ef|g2eg f2df|1 e2A2 (3efg ed:|2 e2A2 A3A||
|:(3B^cd ef g2fg|agfa gedA|(3B^cd ef g2fg|a2d2 d3A|
(3B^cd ef g2fg|agfa gfed|c2AB cded|1 c2A2 A3A:|2 c2A2 (3efg ed||

